X: 6
T: Pedar Bis
Z: ceolachan
S: https://thesession.org/tunes/3733#setting16704
R: barndance
M: 4/4
L: 1/8
K: Ador
|: e>e dc Bc d2 | cA Bc d2 d2 |\
e>e dc Bc d2 | c>A Bc A2 A2 :|
A>B cA Bc d2 | cA Bc d2 d2 |\
AB cA Bc d2 | c/B/A Bc A2 A2 |
AB cA Bc d2 | c/B/A Bc d2 d2 |\
e>e dc Bc d2|c>A Bc A2 A2 |]
